flaticon/game/mushroom.svg

<svg xmlns="http://www.w3.org/2000/svg" width="32" height="32" viewBox="0 0 24 24">
    <path d="M 23.589844 11.585938 C 22.710938 9.253906 21.648438 7.3125 20.519531 5.714844 L 20.546875 5.644531 L 20.382812 5.421875 C 19.046875 3.625 17.554688 2.195312 16.085938 1.277344 C 15.960938 1.199219 15.839844 1.125 15.71875 1.054688 C 15.710938 1.046875 15.699219 1.039062 15.6875 1.035156 C 14.597656 0.398438 13.597656 0.078125 12.8125 0.078125 L 11.351562 0.078125 C 8.171875 0.078125 3.390625 3.679688 0.410156 11.585938 C -0.171875 13.132812 -0.132812 14.832031 0.519531 16.242188 C 1.039062 17.355469 2.105469 18.523438 3.570312 18.523438 C 3.609375 18.523438 3.648438 18.523438 3.6875 18.523438 C 4.238281 18.5 4.789062 18.289062 5.277344 17.914062 C 5.621094 17.648438 6.328125 17.203125 7.507812 16.835938 L 7.011719 20.382812 C 6.871094 21.269531 7.125 22.167969 7.707031 22.847656 C 8.289062 23.527344 9.136719 23.921875 10.035156 23.921875 L 14.714844 23.921875 C 15.609375 23.921875 16.457031 23.53125 17.039062 22.847656 C 17.621094 22.167969 17.875 21.269531 17.738281 20.382812 L 17.222656 17.09375 C 17.972656 17.398438 18.457031 17.710938 18.722656 17.914062 C 19.210938 18.289062 19.761719 18.5 20.3125 18.523438 C 21.839844 18.589844 22.949219 17.386719 23.480469 16.242188 C 24.132812 14.832031 24.171875 13.132812 23.589844 11.585938 Z M 14.855469 1.695312 C 15.191406 1.859375 15.53125 2.066406 15.875 2.296875 C 15.972656 2.367188 16.070312 2.429688 16.167969 2.503906 C 16.195312 2.523438 16.222656 2.546875 16.25 2.566406 C 17.269531 3.339844 18.351562 4.429688 19.394531 5.828125 C 18.84375 6.835938 17.792969 7.476562 16.621094 7.476562 C 14.878906 7.476562 13.460938 6.058594 13.460938 4.3125 C 13.460938 3.261719 13.988281 2.277344 14.855469 1.695312 Z M 16.183594 16.746094 L 16.773438 20.535156 C 16.871094 21.136719 16.699219 21.75 16.300781 22.214844 C 15.902344 22.679688 15.324219 22.945312 14.714844 22.945312 L 10.035156 22.945312 C 9.421875 22.945312 8.84375 22.679688 8.449219 22.214844 C 8.050781 21.75 7.878906 21.136719 7.972656 20.527344 L 8.53125 16.570312 C 8.539062 16.570312 8.550781 16.566406 8.5625 16.5625 C 9.050781 16.460938 9.566406 16.382812 10.105469 16.328125 C 10.167969 16.320312 10.226562 16.316406 10.289062 16.3125 C 10.5 16.292969 10.714844 16.277344 10.929688 16.265625 C 11.003906 16.261719 11.070312 16.257812 11.144531 16.253906 C 11.425781 16.242188 11.707031 16.234375 12 16.234375 C 12.351562 16.234375 12.695312 16.246094 13.035156 16.261719 C 13.097656 16.265625 13.160156 16.269531 13.222656 16.273438 C 13.554688 16.292969 13.886719 16.324219 14.203125 16.363281 C 14.21875 16.363281 14.230469 16.363281 14.246094 16.367188 C 14.9375 16.453125 15.582031 16.578125 16.183594 16.746094 Z M 22.597656 15.832031 C 22.199219 16.691406 21.398438 17.589844 20.351562 17.550781 C 19.910156 17.53125 19.542969 17.316406 19.316406 17.140625 C 18.949219 16.863281 18.226562 16.394531 17.050781 15.996094 L 17.050781 15.992188 L 16.761719 15.902344 C 16.746094 15.898438 16.726562 15.894531 16.710938 15.890625 C 16.417969 15.800781 16.105469 15.71875 15.765625 15.644531 C 15.71875 15.632812 15.671875 15.621094 15.625 15.613281 C 15.316406 15.546875 14.980469 15.488281 14.628906 15.4375 C 14.566406 15.429688 14.503906 15.421875 14.445312 15.414062 C 14.109375 15.371094 13.753906 15.335938 13.382812 15.308594 C 13.3125 15.304688 13.246094 15.300781 13.175781 15.296875 C 12.800781 15.277344 12.414062 15.261719 12 15.261719 C 11.664062 15.261719 11.34375 15.273438 11.03125 15.285156 C 10.941406 15.289062 10.855469 15.296875 10.765625 15.300781 C 10.519531 15.316406 10.28125 15.335938 10.050781 15.359375 C 9.976562 15.367188 9.898438 15.371094 9.824219 15.378906 C 9.542969 15.410156 9.269531 15.449219 9.011719 15.492188 C 8.921875 15.507812 8.835938 15.523438 8.746094 15.539062 C 8.539062 15.578125 8.335938 15.621094 8.148438 15.664062 C 8.09375 15.675781 8.035156 15.683594 7.980469 15.699219 L 7.660156 15.777344 L 7.65625 15.785156 C 6.0625 16.21875 5.117188 16.808594 4.683594 17.144531 C 4.457031 17.320312 4.089844 17.53125 3.648438 17.550781 C 2.617188 17.601562 1.800781 16.691406 1.402344 15.832031 C 0.859375 14.660156 0.828125 13.234375 1.320312 11.929688 C 4.015625 4.789062 8.40625 1.054688 11.351562 1.054688 L 12.8125 1.054688 C 13.121094 1.054688 13.480469 1.121094 13.867188 1.246094 C 13.003906 2.019531 12.488281 3.132812 12.488281 4.3125 C 12.488281 6.59375 14.339844 8.449219 16.621094 8.449219 C 17.992188 8.449219 19.238281 7.773438 20 6.683594 C 20.980469 8.140625 21.90625 9.875 22.679688 11.929688 C 23.171875 13.234375 23.140625 14.65625 22.597656 15.832031 Z M 22.597656 15.832031"/>
    <path d="M7.621094 6.988281C5.476562 6.988281 3.730469 8.734375 3.730469 10.882812 3.730469 13.027344 5.476562 14.773438 7.621094 14.773438 9.765625 14.773438 11.511719 13.027344 11.511719 10.882812 11.511719 8.734375 9.765625 6.988281 7.621094 6.988281zM7.621094 13.800781C6.011719 13.800781 4.703125 12.492188 4.703125 10.882812 4.703125 9.273438 6.011719 7.964844 7.621094 7.964844 9.230469 7.964844 10.539062 9.273438 10.539062 10.882812 10.539062 12.492188 9.230469 13.800781 7.621094 13.800781zM18.8125 10.394531C17.46875 10.394531 16.378906 11.488281 16.378906 12.828125 16.378906 14.171875 17.46875 15.261719 18.8125 15.261719 20.152344 15.261719 21.246094 14.171875 21.246094 12.828125 21.246094 11.488281 20.152344 10.394531 18.8125 10.394531zM18.8125 14.289062C18.007812 14.289062 17.351562 13.632812 17.351562 12.828125 17.351562 12.023438 18.007812 11.367188 18.8125 11.367188 19.617188 11.367188 20.269531 12.023438 20.269531 12.828125 20.269531 13.632812 19.617188 14.289062 18.8125 14.289062zM18.8125 14.289062"/>
</svg>

<svg xmlns="http://www.w3.org/2000/svg" width="32" height="32" viewBox="0 0 24 24">
    <path d="M23.59 11.586c-.88-2.332-1.942-4.274-3.07-5.871l.027-.07-.164-.223c-1.336-1.797-2.828-3.227-4.297-4.145a13.202 13.202 0 0 0-.367-.222.085.085 0 0 0-.031-.02c-1.09-.637-2.09-.957-2.876-.957h-1.46C8.172.078 3.39 3.68.41 11.586c-.582 1.547-.543 3.246.11 4.656.52 1.113 1.585 2.281 3.05 2.281h.118c.55-.023 1.101-.234 1.59-.609.343-.266 1.05-.71 2.23-1.078l-.496 3.547a3.063 3.063 0 0 0 3.023 3.54l4.68-.001a3.066 3.066 0 0 0 3.023-3.54l-.515-3.288c.75.304 1.234.617 1.5.82.488.375 1.039.586 1.59.61 1.527.066 2.636-1.137 3.167-2.282.653-1.41.692-3.11.11-4.656zm-8.735-9.89a8.78 8.78 0 0 1 1.02.6c.098.071.195.134.293.208.027.02.055.043.082.062 1.02.774 2.102 1.864 3.145 3.262a3.153 3.153 0 0 1-2.774 1.649 3.159 3.159 0 1 1-1.766-5.781zm1.329 15.05l.59 3.79a2.069 2.069 0 0 1-.473 1.679c-.399.465-.977.73-1.586.73h-4.68a2.075 2.075 0 0 1-1.586-.73 2.094 2.094 0 0 1-.476-1.688l.558-3.957a15.047 15.047 0 0 1 1.758-.258c.211-.019.426-.035.64-.046l.216-.012c.28-.012.562-.02.855-.02.352 0 .695.012 1.035.028l.188.011a15.481 15.481 0 0 1 1.023.094c.691.086 1.336.211 1.938.38zm6.414-.914c-.399.86-1.2 1.758-2.246 1.719-.442-.02-.809-.235-1.036-.41-.367-.278-1.09-.746-2.265-1.145v-.004l-.29-.09-.05-.011a11.804 11.804 0 0 0-1.086-.278 14.913 14.913 0 0 0-1.18-.199 19.972 19.972 0 0 0-1.062-.105l-.207-.012c-.375-.02-.762-.035-1.176-.035-.336 0-.656.011-.969.023-.09.004-.176.012-.265.016a18.92 18.92 0 0 0-.715.058c-.074.008-.153.012-.227.02-.281.031-.554.07-.812.113l-.266.047c-.207.04-.41.082-.598.125-.054.012-.113.02-.168.035l-.32.078-.004.008c-1.593.434-2.539 1.024-2.972 1.36-.227.175-.594.386-1.036.406-1.03.05-1.847-.86-2.246-1.719C.86 14.66.828 13.234 1.32 11.93 4.016 4.79 8.406 1.055 11.352 1.055h1.46c.31 0 .668.066 1.055.191a4.129 4.129 0 0 0-1.379 3.066 4.138 4.138 0 0 0 4.133 4.137A4.115 4.115 0 0 0 20 6.684a25.361 25.361 0 0 1 2.68 5.246c.492 1.304.46 2.726-.082 3.902zm0 0"/>
    <path d="M7.621 6.988a3.897 3.897 0 0 0-3.89 3.895 3.896 3.896 0 0 0 3.89 3.89 3.896 3.896 0 0 0 3.89-3.89 3.897 3.897 0 0 0-3.89-3.895zm0 6.813a2.92 2.92 0 0 1-2.918-2.918 2.92 2.92 0 0 1 2.918-2.918 2.92 2.92 0 0 1 2.918 2.918A2.92 2.92 0 0 1 7.621 13.8zm0 0M18.813 10.395a2.434 2.434 0 1 0 2.434 2.434 2.439 2.439 0 0 0-2.434-2.434zm0 3.894c-.805 0-1.461-.656-1.461-1.46 0-.806.656-1.462 1.46-1.462a1.46 1.46 0 0 1 0 2.922zm0 0"/>
</svg>
